build/svg/cmd/32/strikeout.svg

<?xml version="1.0" encoding="UTF-8" standalone="no"?>
<svg
   xmlns:dc="http://purl.org/dc/elements/1.1/"
   xmlns:cc="http://creativecommons.org/ns#"
   xmlns:rdf="http://www.w3.org/1999/02/22-rdf-syntax-ns#"
   xmlns:svg="http://www.w3.org/2000/svg"
   xmlns="http://www.w3.org/2000/svg"
   xmlns:sodipodi="http://sodipodi.sourceforge.net/DTD/sodipodi-0.dtd"
   xmlns:inkscape="http://www.inkscape.org/namespaces/inkscape"
   viewBox="0 0 32 32"
   version="1.1"
   id="svg4"
   sodipodi:docname="strikeout.svg"
   inkscape:version="0.92.5 (2060ec1f9f, 2020-04-08)"
   inkscape:export-filename="/home/jupiter007/Libreoffice yaru theme fullcolor/build/cmd/32/strikeout.png"
   inkscape:export-xdpi="96"
   inkscape:export-ydpi="96">
  <metadata
     id="metadata10">
    <rdf:RDF>
      <cc:Work
         rdf:about="">
        <dc:format>image/svg+xml</dc:format>
        <dc:type
           rdf:resource="http://purl.org/dc/dcmitype/StillImage" />
      </cc:Work>
    </rdf:RDF>
  </metadata>
  <defs
     id="defs8" />
  <sodipodi:namedview
     pagecolor="#ffffff"
     bordercolor="#666666"
     borderopacity="1"
     objecttolerance="10"
     gridtolerance="10"
     guidetolerance="10"
     inkscape:pageopacity="0"
     inkscape:pageshadow="2"
     inkscape:window-width="1920"
     inkscape:window-height="1011"
     id="namedview6"
     showgrid="true"
     inkscape:zoom="29.5"
     inkscape:cx="7.4207004"
     inkscape:cy="9.9891071"
     inkscape:window-x="0"
     inkscape:window-y="32"
     inkscape:window-maximized="1"
     inkscape:current-layer="svg4">
    <inkscape:grid
       type="xygrid"
       id="grid832" />
  </sodipodi:namedview>
  <path
     d="m 22.044332,20.534056 c 0,0.861093 -0.180341,1.633414 -0.541024,2.316963 -0.350378,0.674671 -0.855334,1.247254 -1.514867,1.717747 -0.659534,0.470495 -1.463341,0.830024 -2.411421,1.078587 -0.948079,0.239685 -1.68017,0.359528 -2.865271,0.359528 -1.143879,0 -2.215622,-0.0799 -3.215228,-0.239685 -0.989301,-0.150913 -1.8188724,-0.377283 -2.4887115,-0.67911 l -0.00781,-2.226409 c 0.3503774,0.142037 0.7471281,0.284073 1.1902535,0.426108 0.45343,0.13316 0.927469,0.253003 1.422119,0.359529 0.494651,0.106528 1.004759,0.1953 1.530325,0.266318 0.525567,0.06214 1.045981,0.09321 1.561241,0.09321 1.648835,0 2.530354,-0.266318 3.31355,-0.798954 0.793502,-0.532634 1.198066,-1.439896 1.198066,-2.434148 0,-0.479371 -0.07729,-0.896602 -0.231868,-1.251693 C 18.83941,19.166959 18.576626,18.842941 18.195333,18.549992 17.824345,18.248165 17.324542,17.959655 16.695924,17.68446 16.067305,17.400387 15.34041,17.094122 14.382025,16.765664 13.464861,16.45496 12.666207,16.117624 11.986062,15.753657 11.316223,15.380812 10.759742,14.963581 10.316618,14.501964 9.8837966,14.040348 9.5591826,13.51659 9.3427725,12.930691 9.1366682,12.344792 9.033616,11.678998 9.033616,10.933309 c 0,-0.781198 0.1648833,-1.478062 0.4946496,-2.090593 0.329768,-0.61253 0.7935044,-1.127411 1.3912074,-1.544642 0.597702,-0.426107 1.308762,-0.750127 2.133179,-0.972059 0.834723,-0.221931 2.01978,-0.332896 3.019386,-0.332896 1.226321,0 2.328979,0.102088 3.307974,0.306264 0.978995,0.1953 1.849786,0.448302 2.612373,0.759006 L 20.956711,8.971603 C 20.286872,8.714162 19.524287,8.49223 18.668954,8.305807 c -0.845029,-0.1953 -1.720973,-0.29295 -2.627832,-0.29295 -1.257237,0 -2.498972,0.253002 -3.189421,0.759006 -0.69045,0.497127 -1.035675,1.33586 -1.035675,2.188076 0,0.506003 0.07729,0.945427 0.231868,1.318272 0.154578,0.363968 0.412208,0.696865 0.772891,0.998691 0.360683,0.292949 0.834723,0.572583 1.42212,0.8389 0.597703,0.25744 1.262767,0.532635 2.128404,0.825584 0.937775,0.319581 1.75704,0.64804 2.457794,0.985375 0.711061,0.337335 1.303611,0.719058 1.77765,1.145167 0.474041,0.426108 0.829572,0.918795 1.066591,1.478062 0.247325,0.559267 0.370988,1.220622 0.370988,1.984066 z"
     id="path832"
     style="opacity:0.6;fill:#000000;stroke:#000000;stroke-width:2;stroke-linejoin:round;stroke-miterlimit:4;stroke-dasharray:none;stroke-opacity:1"
     inkscape:connector-curvature="0"
     sodipodi:nodetypes="scscsccccccscscccccccscccsccccscscccccccs" />
  <path
     inkscape:connector-curvature="0"
     style="fill:#ffffff;stroke:none;stroke-width:0;stroke-miterlimit:4;stroke-dasharray:none;stroke-opacity:0.6"
     id="path9"
     d="m 22.044332,20.534056 c 0,0.861093 -0.180341,1.633414 -0.541024,2.316963 -0.350378,0.674671 -0.855334,1.247254 -1.514867,1.717747 -0.659534,0.470495 -1.463341,0.830024 -2.411421,1.078587 -0.948079,0.239685 -1.68017,0.359528 -2.865271,0.359528 -1.143879,0 -2.215622,-0.0799 -3.215228,-0.239685 -0.989301,-0.150913 -1.8188724,-0.377283 -2.4887115,-0.67911 l -0.00781,-2.226409 c 0.3503774,0.142037 0.7471281,0.284073 1.1902535,0.426108 0.45343,0.13316 0.927469,0.253003 1.422119,0.359529 0.494651,0.106528 1.004759,0.1953 1.530325,0.266318 0.525567,0.06214 1.045981,0.09321 1.561241,0.09321 1.648835,0 2.530354,-0.266318 3.31355,-0.798954 0.793502,-0.532634 1.198066,-1.439896 1.198066,-2.434148 0,-0.479371 -0.07729,-0.896602 -0.231868,-1.251693 C 18.83941,19.166959 18.576626,18.842941 18.195333,18.549992 17.824345,18.248165 17.324542,17.959655 16.695924,17.68446 16.067305,17.400387 15.34041,17.094122 14.382025,16.765664 13.464861,16.45496 12.666207,16.117624 11.986062,15.753657 11.316223,15.380812 10.759742,14.963581 10.316618,14.501964 9.8837966,14.040348 9.5591826,13.51659 9.3427725,12.930691 9.1366682,12.344792 9.033616,11.678998 9.033616,10.933309 c 0,-0.781198 0.1648833,-1.478062 0.4946496,-2.090593 0.329768,-0.61253 0.7935044,-1.127411 1.3912074,-1.544642 0.597702,-0.426107 1.308762,-0.750127 2.133179,-0.972059 0.834723,-0.221931 2.01978,-0.332896 3.019386,-0.332896 1.226321,0 2.328979,0.102088 3.307974,0.306264 0.978995,0.1953 1.849786,0.448302 2.612373,0.759006 L 20.956711,8.971603 C 20.286872,8.714162 19.524287,8.49223 18.668954,8.305807 c -0.845029,-0.1953 -1.720973,-0.29295 -2.627832,-0.29295 -1.257237,0 -2.498972,0.253002 -3.189421,0.759006 -0.69045,0.497127 -1.035675,1.33586 -1.035675,2.188076 0,0.506003 0.07729,0.945427 0.231868,1.318272 0.154578,0.363968 0.412208,0.696865 0.772891,0.998691 0.360683,0.292949 0.834723,0.572583 1.42212,0.8389 0.597703,0.25744 1.262767,0.532635 2.128404,0.825584 0.937775,0.319581 1.75704,0.64804 2.457794,0.985375 0.711061,0.337335 1.303611,0.719058 1.77765,1.145167 0.474041,0.426108 0.829572,0.918795 1.066591,1.478062 0.247325,0.559267 0.370988,1.220622 0.370988,1.984066 z"
     sodipodi:nodetypes="scscsccccccscscccccccscccsccccscscccccccs" />
  <rect
     y="15"
     x="4"
     height="1"
     width="24"
     id="rect836"
     style="opacity:0.6;fill:#000000;fill-opacity:1;stroke:#000000;stroke-width:2;stroke-linejoin:round;stroke-miterlimit:4;stroke-dasharray:none;stroke-opacity:1" />
  <rect
     style="opacity:1;fill:#ffffff;fill-opacity:1;stroke:none;stroke-width:2;stroke-linejoin:round;stroke-miterlimit:4;stroke-dasharray:none;stroke-opacity:1"
     id="rect834"
     width="24"
     height="1"
     x="4"
     y="15" />
</svg>

<svg xmlns="http://www.w3.org/2000/svg" viewBox="0 0 32 32"><path d="M22.044 20.534c0 .861-.18 1.633-.54 2.317a4.833 4.833 0 01-1.516 1.718c-.66.47-1.463.83-2.411 1.078-.948.24-1.68.36-2.865.36-1.144 0-2.216-.08-3.215-.24-.99-.15-1.82-.377-2.49-.679L9 22.862c.35.142.747.284 1.19.426a19.966 19.966 0 002.953.626c.525.062 1.046.093 1.56.093 1.65 0 2.531-.266 3.314-.8.794-.532 1.199-1.439 1.199-2.433 0-.48-.078-.897-.232-1.252-.145-.355-.407-.68-.789-.972-.37-.302-.87-.59-1.5-.866a25.455 25.455 0 00-2.313-.918 15.935 15.935 0 01-2.396-1.012c-.67-.373-1.226-.79-1.67-1.252a4.614 4.614 0 01-.973-1.571c-.206-.586-.31-1.252-.31-1.998 0-.78.165-1.478.495-2.09a4.429 4.429 0 011.391-1.545c.598-.426 1.31-.75 2.134-.972.834-.222 2.02-.333 3.019-.333 1.226 0 2.329.102 3.308.306.979.196 1.85.449 2.612.76l-1.035 1.913a15.75 15.75 0 00-2.288-.666 11.633 11.633 0 00-2.628-.293c-1.257 0-2.499.253-3.19.759-.69.497-1.035 1.336-1.035 2.188 0 .506.077.945.232 1.318.154.364.412.697.773.999.36.293.835.572 1.422.839.598.257 1.263.532 2.128.825.938.32 1.757.648 2.458.986.711.337 1.304.719 1.778 1.145.474.426.83.919 1.066 1.478.248.56.371 1.22.371 1.984z" opacity=".6" stroke="#000" stroke-width="2" stroke-linejoin="round"/><path d="M22.044 20.534c0 .861-.18 1.633-.54 2.317a4.833 4.833 0 01-1.516 1.718c-.66.47-1.463.83-2.411 1.078-.948.24-1.68.36-2.865.36-1.144 0-2.216-.08-3.215-.24-.99-.15-1.82-.377-2.49-.679L9 22.862c.35.142.747.284 1.19.426a19.966 19.966 0 002.953.626c.525.062 1.046.093 1.56.093 1.65 0 2.531-.266 3.314-.8.794-.532 1.199-1.439 1.199-2.433 0-.48-.078-.897-.232-1.252-.145-.355-.407-.68-.789-.972-.37-.302-.87-.59-1.5-.866a25.455 25.455 0 00-2.313-.918 15.935 15.935 0 01-2.396-1.012c-.67-.373-1.226-.79-1.67-1.252a4.614 4.614 0 01-.973-1.571c-.206-.586-.31-1.252-.31-1.998 0-.78.165-1.478.495-2.09a4.429 4.429 0 011.391-1.545c.598-.426 1.31-.75 2.134-.972.834-.222 2.02-.333 3.019-.333 1.226 0 2.329.102 3.308.306.979.196 1.85.449 2.612.76l-1.035 1.913a15.75 15.75 0 00-2.288-.666 11.633 11.633 0 00-2.628-.293c-1.257 0-2.499.253-3.19.759-.69.497-1.035 1.336-1.035 2.188 0 .506.077.945.232 1.318.154.364.412.697.773.999.36.293.835.572 1.422.839.598.257 1.263.532 2.128.825.938.32 1.757.648 2.458.986.711.337 1.304.719 1.778 1.145.474.426.83.919 1.066 1.478.248.56.371 1.22.371 1.984z" fill="#fff"/><path opacity=".6" stroke="#000" stroke-width="2" stroke-linejoin="round" d="M4 15h24v1H4z"/><path fill="#fff" d="M4 15h24v1H4z"/></svg>
